icons/briefcase-16.svg

<svg xmlns="http://www.w3.org/2000/svg" width="16" height="16" viewBox="0 0 16 16"><path d="M6.75 0h2.5C10.216 0 11 .784 11 1.75V3h3.25c.966 0 1.75.784 1.75 1.75v8.5A1.75 1.75 0 0114.25 15H1.75A1.75 1.75 0 010 13.25v-8.5C0 3.784.784 3 1.75 3H5V1.75C5 .784 5.784 0 6.75 0zM3.5 9.5a3.49 3.49 0 01-2-.627v4.377c0 .138.112.25.25.25h12.5a.25.25 0 00.25-.25V8.873a3.49 3.49 0 01-2 .627zm-1.75-5a.25.25 0 00-.25.25V6a2 2 0 002 2h9a2 2 0 002-2V4.75a.25.25 0 00-.25-.25H1.75zM9.5 3V1.75a.25.25 0 00-.25-.25h-2.5a.25.25 0 00-.25.25V3z"/></svg>

<svg xmlns="http://www.w3.org/2000/svg" width="16" height="16" viewBox="0 0 16 16">
  <defs/>
  <path d="M6.75,0 L9.25,0 C10.216,0 11,0.784 11,1.75 L11,3 L14.25,3 C15.216,3 16,3.784 16,4.75 L16,13.25 C16,14.216 15.216,15 14.25,15 L1.75,15 C0.784,15 0,14.216 0,13.25 L0,4.75 C0,3.784 0.784,3 1.75,3 L5,3 L5,1.75 C5,0.784 5.784,0 6.75,0 Z M3.5,9.5 C2.785,9.501 2.087,9.282 1.5,8.873 L1.5,13.25 C1.5,13.388 1.612,13.5 1.75,13.5 L14.25,13.5 C14.388,13.5 14.5,13.388 14.5,13.25 L14.5,8.873 C13.913,9.282 13.215,9.501 12.5,9.5 Z M1.75,4.5 C1.612,4.5 1.5,4.612 1.5,4.75 L1.5,6 C1.5,7.105 2.395,8 3.5,8 L12.5,8 C13.605,8 14.5,7.105 14.5,6 L14.5,4.75 C14.5,4.612 14.388,4.5 14.25,4.5 L1.75,4.5 Z M9.5,3 L9.5,1.75 C9.5,1.612 9.388,1.5 9.25,1.5 L6.75,1.5 C6.612,1.5 6.5,1.612 6.5,1.75 L6.5,3 Z"/>
</svg>
